X:212
T:Wedding Gift Waltz
M:3/4
L:1/8
C:Dave Panting
K:D
A2||:"D"D4-D>A|"F#m" FA3 c>A|"Bm"d4"A" c>A|"G"B G4 A|
"D"D4-D>A|"F#m"F A3 c>A|"G" d>B G2"D"((3FGF)|"A"E4-E>A|
"D"D4-D>A|"F#m"F A3 c>A|"Bm" d4 "A"c>A|"G"B d3 ((3BdB)|
"D"A>F D3 A|"G"B>G d2 ((3FGF)|"A"E6|[1 "D"D4 A2:|[2 "D"D4-D>e||
"D"f2 d2 A2|"A" e2 c2 A2|"Bm"d4 "A"c>A|"G"B G4 e|
"D"f2 d2 A2|"A" e2 c2 A2|"G"d>B G2 "D" ((3FGF)|"A"E4-E>e|
"D"f2 d2 A2|"A"e2 c2 A2|"Bm"d4 "A"c>A|"G"B d3 ((3BdB)|
"D" A>F D3 A|"G" B>G d2 ((3FAF)|"A" E6|"D" D6||
